/* XPM */
/* East wall (yellow brick) texture (64x64). Replace with real asset. */
static char *east[] = {
"64 64 2 1",
"  c #000000",
"X c #CCCC44",
"                                                                ",
"                                                                ",
"  XXXXXXXXXXXXXX  XXXXXXXXXXXXXX  XXXXXXXXXXXXXX  XXXXXXXXXXXXXX",
"  XXXXXXXXXXXXXX  XXXXXXXXXXXXXX  XXXXXXXXXXXXXX  XXXXXXXXXXXXXX",
"  XXXXXXXXXXXXXX  XXXXXXXXXXXXXX  XXXXXXXXXXXXXX  XXXXXXXXXXXXXX",
"  XXXXXXXXXXXXXX  XXXXXXXXXXXXXX  XXXXXXXXXXXXXX  XXXXXXXXXXXXXX",
"  XXXXXXXXXXXXXX  XXXXXXXXXXXXXX  XXXXXXXXXXXXXX  XXXXXXXXXXXXXX",
"  XXXXXXXXXXXXXX  XXXXXXXXXXXXXX  XXXXXXXXXXXXXX  XXXXXXXXXXXXXX",
"XXXXXXXXXXXXXXXX  XXXXXXXXXXXXXXXXXXXXXXXXXXXXXX  XXXXXXXXXXXXXX",
"XXXXXXXXXXXXXXXX  XXXXXXXXXXXXXXXXXXXXXXXXXXXXXX  XXXXXXXXXXXXXX",
"XXXXXXXXXXXXXXXX  XXXXXXXXXXXXXXXXXXXXXXXXXXXXXX  XXXXXXXXXXXXXX",
"XXXXXXXXXXXXXXXX  XXXXXXXXXXXXXXXXXXXXXXXXXXXXXX  XXXXXXXXXXXXXX",
"XXXXXXXXXXXXXXXX  XXXXXXXXXXXXXXXXXXXXXXXXXXXXXX  XXXXXXXXXXXXXX",
"XXXXXXXXXXXXXXXX  XXXXXXXXXXXXXXXXXXXXXXXXXXXXXX  XXXXXXXXXXXXXX",
"XXXXXXXXXXXXXXXX  XXXXXXXXXXXXXXXXXXXXXXXXXXXXXX  XXXXXXXXXXXXXX",
"XXXXXXXXXXXXXXXX  XXXXXXXXXXXXXXXXXXXXXXXXXXXXXX  XXXXXXXXXXXXXX",
"                                                                ",
"                                                                ",
"  XXXXXXXXXXXXXX  XXXXXXXXXXXXXX  XXXXXXXXXXXXXX  XXXXXXXXXXXXXX",
"  XXXXXXXXXXXXXX  XXXXXXXXXXXXXX  XXXXXXXXXXXXXX  XXXXXXXXXXXXXX",
"  XXXXXXXXXXXXXX  XXXXXXXXXXXXXX  XXXXXXXXXXXXXX  XXXXXXXXXXXXXX",
"  XXXXXXXXXXXXXX  XXXXXXXXXXXXXX  XXXXXXXXXXXXXX  XXXXXXXXXXXXXX",
"  XXXXXXXXXXXXXX  XXXXXXXXXXXXXX  XXXXXXXXXXXXXX  XXXXXXXXXXXXXX",
"  XXXXXXXXXXXXXX  XXXXXXXXXXXXXX  XXXXXXXXXXXXXX  XXXXXXXXXXXXXX",
"XXXXXXXXXXXXXXXX  XXXXXXXXXXXXXXXXXXXXXXXXXXXXXX  XXXXXXXXXXXXXX",
"XXXXXXXXXXXXXXXX  XXXXXXXXXXXXXXXXXXXXXXXXXXXXXX  XXXXXXXXXXXXXX",
"XXXXXXXXXXXXXXXX  XXXXXXXXXXXXXXXXXXXXXXXXXXXXXX  XXXXXXXXXXXXXX",
"XXXXXXXXXXXXXXXX  XXXXXXXXXXXXXXXXXXXXXXXXXXXXXX  XXXXXXXXXXXXXX",
"XXXXXXXXXXXXXXXX  XXXXXXXXXXXXXXXXXXXXXXXXXXXXXX  XXXXXXXXXXXXXX",
"XXXXXXXXXXXXXXXX  XXXXXXXXXXXXXXXXXXXXXXXXXXXXXX  XXXXXXXXXXXXXX",
"XXXXXXXXXXXXXXXX  XXXXXXXXXXXXXXXXXXXXXXXXXXXXXX  XXXXXXXXXXXXXX",
"XXXXXXXXXXXXXXXX  XXXXXXXXXXXXXXXXXXXXXXXXXXXXXX  XXXXXXXXXXXXXX",
"                                                                ",
"                                                                ",
"  XXXXXXXXXXXXXX  XXXXXXXXXXXXXX  XXXXXXXXXXXXXX  XXXXXXXXXXXXXX",
"  XXXXXXXXXXXXXX  XXXXXXXXXXXXXX  XXXXXXXXXXXXXX  XXXXXXXXXXXXXX",
"  XXXXXXXXXXXXXX  XXXXXXXXXXXXXX  XXXXXXXXXXXXXX  XXXXXXXXXXXXXX",
"  XXXXXXXXXXXXXX  XXXXXXXXXXXXXX  XXXXXXXXXXXXXX  XXXXXXXXXXXXXX",
"  XXXXXXXXXXXXXX  XXXXXXXXXXXXXX  XXXXXXXXXXXXXX  XXXXXXXXXXXXXX",
"  XXXXXXXXXXXXXX  XXXXXXXXXXXXXX  XXXXXXXXXXXXXX  XXXXXXXXXXXXXX",
"XXXXXXXXXXXXXXXX  XXXXXXXXXXXXXXXXXXXXXXXXXXXXXX  XXXXXXXXXXXXXX",
"XXXXXXXXXXXXXXXX  XXXXXXXXXXXXXXXXXXXXXXXXXXXXXX  XXXXXXXXXXXXXX",
"XXXXXXXXXXXXXXXX  XXXXXXXXXXXXXXXXXXXXXXXXXXXXXX  XXXXXXXXXXXXXX",
"XXXXXXXXXXXXXXXX  XXXXXXXXXXXXXXXXXXXXXXXXXXXXXX  XXXXXXXXXXXXXX",
"XXXXXXXXXXXXXXXX  XXXXXXXXXXXXXXXXXXXXXXXXXXXXXX  XXXXXXXXXXXXXX",
"XXXXXXXXXXXXXXXX  XXXXXXXXXXXXXXXXXXXXXXXXXXXXXX  XXXXXXXXXXXXXX",
"XXXXXXXXXXXXXXXX  XXXXXXXXXXXXXXXXXXXXXXXXXXXXXX  XXXXXXXXXXXXXX",
"XXXXXXXXXXXXXXXX  XXXXXXXXXXXXXXXXXXXXXXXXXXXXXX  XXXXXXXXXXXXXX",
"                                                                ",
"                                                                ",
"  XXXXXXXXXXXXXX  XXXXXXXXXXXXXX  XXXXXXXXXXXXXX  XXXXXXXXXXXXXX",
"  XXXXXXXXXXXXXX  XXXXXXXXXXXXXX  XXXXXXXXXXXXXX  XXXXXXXXXXXXXX",
"  XXXXXXXXXXXXXX  XXXXXXXXXXXXXX  XXXXXXXXXXXXXX  XXXXXXXXXXXXXX",
"  XXXXXXXXXXXXXX  XXXXXXXXXXXXXX  XXXXXXXXXXXXXX  XXXXXXXXXXXXXX",
"  XXXXXXXXXXXXXX  XXXXXXXXXXXXXX  XXXXXXXXXXXXXX  XXXXXXXXXXXXXX",
"  XXXXXXXXXXXXXX  XXXXXXXXXXXXXX  XXXXXXXXXXXXXX  XXXXXXXXXXXXXX",
"XXXXXXXXXXXXXXXX  XXXXXXXXXXXXXXXXXXXXXXXXXXXXXX  XXXXXXXXXXXXXX",
"XXXXXXXXXXXXXXXX  XXXXXXXXXXXXXXXXXXXXXXXXXXXXXX  XXXXXXXXXXXXXX",
"XXXXXXXXXXXXXXXX  XXXXXXXXXXXXXXXXXXXXXXXXXXXXXX  XXXXXXXXXXXXXX",
"XXXXXXXXXXXXXXXX  XXXXXXXXXXXXXXXXXXXXXXXXXXXXXX  XXXXXXXXXXXXXX",
"XXXXXXXXXXXXXXXX  XXXXXXXXXXXXXXXXXXXXXXXXXXXXXX  XXXXXXXXXXXXXX",
"XXXXXXXXXXXXXXXX  XXXXXXXXXXXXXXXXXXXXXXXXXXXXXX  XXXXXXXXXXXXXX",
"XXXXXXXXXXXXXXXX  XXXXXXXXXXXXXXXXXXXXXXXXXXXXXX  XXXXXXXXXXXXXX",
"XXXXXXXXXXXXXXXX  XXXXXXXXXXXXXXXXXXXXXXXXXXXXXX  XXXXXXXXXXXXXX"
};
