/* XPM */
/* South wall (green brick) texture (64x64). Replace with real asset. */
static char *south[] = {
"64 64 2 1",
"  c #000000",
"X c #44CC44",
"                                                                ",
"                                                                ",
"  XXXXXXXXXXXXXX  XXXXXXXXXXXXXX  XXXXXXXXXXXXXX  XXXXXXXXXXXXXX",
"  XXXXXXXXXXXXXX  XXXXXXXXXXXXXX  XXXXXXXXXXXXXX  XXXXXXXXXXXXXX",
"  XXXXXXXXXXXXXX  XXXXXXXXXXXXXX  XXXXXXXXXXXXXX  XXXXXXXXXXXXXX",
"  XXXXXXXXXXXXXX  XXXXXXXXXXXXXX  XXXXXXXXXXXXXX  XXXXXXXXXXXXXX",
"  XXXXXXXXXXXXXX  XXXXXXXXXXXXXX  XXXXXXXXXXXXXX  XXXXXXXXXXXXXX",
"  XXXXXXXXXXXXXX  XXXXXXXXXXXXXX  XXXXXXXXXXXXXX  XXXXXXXXXXXXXX",
"XXXXXXXXXXXXXXXX  XXXXXXXXXXXXXXXXXXXXXXXXXXXXXX  XXXXXXXXXXXXXX",
"XXXXXXXXXXXXXXXX  XXXXXXXXXXXXXXXXXXXXXXXXXXXXXX  XXXXXXXXXXXXXX",
"XXXXXXXXXXXXXXXX  XXXXXXXXXXXXXXXXXXXXXXXXXXXXXX  XXXXXXXXXXXXXX",
"XXXXXXXXXXXXXXXX  XXXXXXXXXXXXXXXXXXXXXXXXXXXXXX  XXXXXXXXXXXXXX",
"XXXXXXXXXXXXXXXX  XXXXXXXXXXXXXXXXXXXXXXXXXXXXXX  XXXXXXXXXXXXXX",
"XXXXXXXXXXXXXXXX  XXXXXXXXXXXXXXXXXXXXXXXXXXXXXX  XXXXXXXXXXXXXX",
"XXXXXXXXXXXXXXXX  XXXXXXXXXXXXXXXXXXXXXXXXXXXXXX  XXXXXXXXXXXXXX",
"XXXXXXXXXXXXXXXX  XXXXXXXXXXXXXXXXXXXXXXXXXXXXXX  XXXXXXXXXXXXXX",
"                                                                ",
"                                                                ",
"  XXXXXXXXXXXXXX  XXXXXXXXXXXXXX  XXXXXXXXXXXXXX  XXXXXXXXXXXXXX",
"  XXXXXXXXXXXXXX  XXXXXXXXXXXXXX  XXXXXXXXXXXXXX  XXXXXXXXXXXXXX",
"  XXXXXXXXXXXXXX  XXXXXXXXXXXXXX  XXXXXXXXXXXXXX  XXXXXXXXXXXXXX",
"  XXXXXXXXXXXXXX  XXXXXXXXXXXXXX  XXXXXXXXXXXXXX  XXXXXXXXXXXXXX",
"  XXXXXXXXXXXXXX  XXXXXXXXXXXXXX  XXXXXXXXXXXXXX  XXXXXXXXXXXXXX",
"  XXXXXXXXXXXXXX  XXXXXXXXXXXXXX  XXXXXXXXXXXXXX  XXXXXXXXXXXXXX",
"XXXXXXXXXXXXXXXX  XXXXXXXXXXXXXXXXXXXXXXXXXXXXXX  XXXXXXXXXXXXXX",
"XXXXXXXXXXXXXXXX  XXXXXXXXXXXXXXXXXXXXXXXXXXXXXX  XXXXXXXXXXXXXX",
"XXXXXXXXXXXXXXXX  XXXXXXXXXXXXXXXXXXXXXXXXXXXXXX  XXXXXXXXXXXXXX",
"XXXXXXXXXXXXXXXX  XXXXXXXXXXXXXXXXXXXXXXXXXXXXXX  XXXXXXXXXXXXXX",
"XXXXXXXXXXXXXXXX  XXXXXXXXXXXXXXXXXXXXXXXXXXXXXX  XXXXXXXXXXXXXX",
"XXXXXXXXXXXXXXXX  XXXXXXXXXXXXXXXXXXXXXXXXXXXXXX  XXXXXXXXXXXXXX",
"XXXXXXXXXXXXXXXX  XXXXXXXXXXXXXXXXXXXXXXXXXXXXXX  XXXXXXXXXXXXXX",
"XXXXXXXXXXXXXXXX  XXXXXXXXXXXXXXXXXXXXXXXXXXXXXX  XXXXXXXXXXXXXX",
"                                                                ",
"                                                                ",
"  XXXXXXXXXXXXXX  XXXXXXXXXXXXXX  XXXXXXXXXXXXXX  XXXXXXXXXXXXXX",
"  XXXXXXXXXXXXXX  XXXXXXXXXXXXXX  XXXXXXXXXXXXXX  XXXXXXXXXXXXXX",
"  XXXXXXXXXXXXXX  XXXXXXXXXXXXXX  XXXXXXXXXXXXXX  XXXXXXXXXXXXXX",
"  XXXXXXXXXXXXXX  XXXXXXXXXXXXXX  XXXXXXXXXXXXXX  XXXXXXXXXXXXXX",
"  XXXXXXXXXXXXXX  XXXXXXXXXXXXXX  XXXXXXXXXXXXXX  XXXXXXXXXXXXXX",
"  XXXXXXXXXXXXXX  XXXXXXXXXXXXXX  XXXXXXXXXXXXXX  XXXXXXXXXXXXXX",
"XXXXXXXXXXXXXXXX  XXXXXXXXXXXXXXXXXXXXXXXXXXXXXX  XXXXXXXXXXXXXX",
"XXXXXXXXXXXXXXXX  XXXXXXXXXXXXXXXXXXXXXXXXXXXXXX  XXXXXXXXXXXXXX",
"XXXXXXXXXXXXXXXX  XXXXXXXXXXXXXXXXXXXXXXXXXXXXXX  XXXXXXXXXXXXXX",
"XXXXXXXXXXXXXXXX  XXXXXXXXXXXXXXXXXXXXXXXXXXXXXX  XXXXXXXXXXXXXX",
"XXXXXXXXXXXXXXXX  XXXXXXXXXXXXXXXXXXXXXXXXXXXXXX  XXXXXXXXXXXXXX",
"XXXXXXXXXXXXXXXX  XXXXXXXXXXXXXXXXXXXXXXXXXXXXXX  XXXXXXXXXXXXXX",
"XXXXXXXXXXXXXXXX  XXXXXXXXXXXXXXXXXXXXXXXXXXXXXX  XXXXXXXXXXXXXX",
"XXXXXXXXXXXXXXXX  XXXXXXXXXXXXXXXXXXXXXXXXXXXXXX  XXXXXXXXXXXXXX",
"                                                                ",
"                                                                ",
"  XXXXXXXXXXXXXX  XXXXXXXXXXXXXX  XXXXXXXXXXXXXX  XXXXXXXXXXXXXX",
"  XXXXXXXXXXXXXX  XXXXXXXXXXXXXX  XXXXXXXXXXXXXX  XXXXXXXXXXXXXX",
"  XXXXXXXXXXXXXX  XXXXXXXXXXXXXX  XXXXXXXXXXXXXX  XXXXXXXXXXXXXX",
"  XXXXXXXXXXXXXX  XXXXXXXXXXXXXX  XXXXXXXXXXXXXX  XXXXXXXXXXXXXX",
"  XXXXXXXXXXXXXX  XXXXXXXXXXXXXX  XXXXXXXXXXXXXX  XXXXXXXXXXXXXX",
"  XXXXXXXXXXXXXX  XXXXXXXXXXXXXX  XXXXXXXXXXXXXX  XXXXXXXXXXXXXX",
"XXXXXXXXXXXXXXXX  XXXXXXXXXXXXXXXXXXXXXXXXXXXXXX  XXXXXXXXXXXXXX",
"XXXXXXXXXXXXXXXX  XXXXXXXXXXXXXXXXXXXXXXXXXXXXXX  XXXXXXXXXXXXXX",
"XXXXXXXXXXXXXXXX  XXXXXXXXXXXXXXXXXXXXXXXXXXXXXX  XXXXXXXXXXXXXX",
"XXXXXXXXXXXXXXXX  XXXXXXXXXXXXXXXXXXXXXXXXXXXXXX  XXXXXXXXXXXXXX",
"XXXXXXXXXXXXXXXX  XXXXXXXXXXXXXXXXXXXXXXXXXXXXXX  XXXXXXXXXXXXXX",
"XXXXXXXXXXXXXXXX  XXXXXXXXXXXXXXXXXXXXXXXXXXXXXX  XXXXXXXXXXXXXX",
"XXXXXXXXXXXXXXXX  XXXXXXXXXXXXXXXXXXXXXXXXXXXXXX  XXXXXXXXXXXXXX",
"XXXXXXXXXXXXXXXX  XXXXXXXXXXXXXXXXXXXXXXXXXXXXXX  XXXXXXXXXXXXXX"
};
