/* XPM */
/* Sprite frame 1 64x64. */
static char *sprite01[] = {
"64 64 3 1",
"  c #000000",
"G c #00FF00",
"R c #FF0000",
"                                                                ",
"                                                                ",
"                                                                ",
"                                                                ",
"                                                                ",
"                                                                ",
"                                                                ",
"                                                                ",
"                                                                ",
"                                                                ",
"                                G                               ",
"                          GGGGGGGGGGGGG                         ",
"                       GGGGGGGGGGGGGGGGGGG                      ",
"                     GGGGGGGGGGGGGGGGGGGGGGG                    ",
"                    GGGGGGGGGGGGGGGGGGGGGGGGG                   ",
"                   GGGGGGGGGGGGGGGGGGGGGGGGGGG                  ",
"                 GGGGGGGGGGGGGGGGGGGGGGGGGGGGGGG                ",
"                GGGGGGGGGGGGGGGGGGGGGGGGGGGGGGGGG               ",
"                GGGGGGGGGGGGGGGGGGGGGGGGGGGGGGGGG               ",
"               GGGGGGGGGGGGGGGGGGGGGGGGGGGGGGGGGGG              ",
"              GGGGGGGGGGGGGGGGGGGGGGGGGGGGGGGGGGGGG             ",
"             GGGGGGGGGGGGGGGGGGGGGGGGGGGGGGGGGGGGGGG            ",
"             GGGGGGGGGGGGGGGGGGGGGGGGGGGGGGGGGGGGGGG            ",
"            GGGGGGGGGGGGGGGGGGGGGGGGGGGGGGGGGGGGGGGGG           ",
"            GGGGGGGGGGGGGGGGGGGGGGGGGGGGGGGGGGGGGGGGG           ",
"            GGGGGGGGGGGGGGGGGGGGGGGGGGGGGGGGGGGGGGGGG           ",
"           GGGGGGGGGGGGGGGGGGGGGGGGGGGGGGGGGGGGGGGGGGG          ",
"           GGGGGGGGGGGGGGGGGGGGGGGGGGGGGGGGGGGGGGGGGGG          ",
"           GGGGGGGGGGGGGGGGGGGGGGGGGGGGGGGGGGGGGGGGGGG          ",
"           GGGGGGGGGGGGGGGGGGGGGGGGGGGGGGGGGGGGGGGGGGG          ",
"           GGGGGGGGGGGGGGGGGGGGGGGGGGGGGGGGGGGGGGGGGGG          ",
"           GGGGGGGGGGGGGGGGGGGGGGGGGGGGGGGGGGGGGGGGGGG          ",
"          GGGGGGGGGGGGGGGGGGGGGGGGGGGGGGGGGGGGGGGGGGGGG         ",
"           GGGGGGGGGGGGGGGGGGGGGGGGGGGGGGGGGGGGGGGGGGG          ",
"           GGGGGGGGGGGGGGGGGGGGGGGGGGGGGGGGGGGGGGGGGGG          ",
"           GGGGGGGGGGGGGGGGGGGGGGGGGGGGGGGGGGGGGGGGGGG          ",
"           GGGGGGGGGGGGGGGGGGGGGGGGGGGGGGGGGGGGGGGGGGG          ",
"           GGGGGGGGGGGGGGGGGGGGGGGGGGGGGGGGGGGGGGGGGGG          ",
"           GGGGGGGGGGGGGGGGGGGGGGGGGGGGGGGGGGGGGGGGGGG          ",
"            GGGGGGGGGGGGGGGGGGGGGGGGGGGGGGGGGGGGGGGGG           ",
"            GGGGGGGGGGGGGGGGGGGGGGGGGGGGGGGGGGGGGGGGG           ",
"            GGGGGGGGGGGGGGGGGGGGGGGGGGGGGGGGGGGGGGGGG           ",
"             GGGGGGGGGGGGGGGGGGGGGGGGGGGGGGGGGGGGGGG            ",
"             GGGGGGGGGGGGGGGGGGGGGGGGGGGGGGGGGGGGGGG            ",
"              GGGGGGGGGGGGGGGGGGGGGGGGGGGGGGGGGGGGG             ",
"               GGGGGGGGGGGGGGGGGGGGGGGGGGGGGGGGGGG              ",
"                GGGGGGGGGGGGGGGGGGGGGGGGGGGGGGGGG               ",
"                GGGGGGGGGGGGGGGGGGGGGGGGGGGGGGGGG               ",
"                 GGGGGGGGGGGGGGGGGGGGGGGGGGGGGGG                ",
"                   GGGGGGGGGGGGGGGGGGGGGGGGGGG                  ",
"                    GGGGGGGGGGGGGGGGGGGGGGGGG                   ",
"                     GGGGGGGGGGGGGGGGGGGGGGG                    ",
"                       GGGGGGGGGGGGGGGGGGG                      ",
"                          GGGGGGGGGGGGG                         ",
"                                G                               ",
"                                                                ",
"                                                                ",
"                                                                ",
"                                                                ",
"                                                                ",
"                                                                ",
"                                                                ",
"                                                                ",
"                                                                "
};
