/* XPM */
/* West wall (blue brick) texture (64x64). Replace with real asset. */
static char *west[] = {
"64 64 2 1",
"  c #000000",
"X c #4444CC",
"                                                                ",
"                                                                ",
"  XXXXXXXXXXXXXX  XXXXXXXXXXXXXX  XXXXXXXXXXXXXX  XXXXXXXXXXXXXX",
"  XXXXXXXXXXXXXX  XXXXXXXXXXXXXX  XXXXXXXXXXXXXX  XXXXXXXXXXXXXX",
"  XXXXXXXXXXXXXX  XXXXXXXXXXXXXX  XXXXXXXXXXXXXX  XXXXXXXXXXXXXX",
"  XXXXXXXXXXXXXX  XXXXXXXXXXXXXX  XXXXXXXXXXXXXX  XXXXXXXXXXXXXX",
"  XXXXXXXXXXXXXX  XXXXXXXXXXXXXX  XXXXXXXXXXXXXX  XXXXXXXXXXXXXX",
"  XXXXXXXXXXXXXX  XXXXXXXXXXXXXX  XXXXXXXXXXXXXX  XXXXXXXXXXXXXX",
"XXXXXXXXXXXXXXXX  XXXXXXXXXXXXXXXXXXXXXXXXXXXXXX  XXXXXXXXXXXXXX",
"XXXXXXXXXXXXXXXX  XXXXXXXXXXXXXXXXXXXXXXXXXXXXXX  XXXXXXXXXXXXXX",
"XXXXXXXXXXXXXXXX  XXXXXXXXXXXXXXXXXXXXXXXXXXXXXX  XXXXXXXXXXXXXX",
"XXXXXXXXXXXXXXXX  XXXXXXXXXXXXXXXXXXXXXXXXXXXXXX  XXXXXXXXXXXXXX",
"XXXXXXXXXXXXXXXX  XXXXXXXXXXXXXXXXXXXXXXXXXXXXXX  XXXXXXXXXXXXXX",
"XXXXXXXXXXXXXXXX  XXXXXXXXXXXXXXXXXXXXXXXXXXXXXX  XXXXXXXXXXXXXX",
"XXXXXXXXXXXXXXXX  XXXXXXXXXXXXXXXXXXXXXXXXXXXXXX  XXXXXXXXXXXXXX",
"XXXXXXXXXXXXXXXX  XXXXXXXXXXXXXXXXXXXXXXXXXXXXXX  XXXXXXXXXXXXXX",
"                                                                ",
"                                                                ",
"  XXXXXXXXXXXXXX  XXXXXXXXXXXXXX  XXXXXXXXXXXXXX  XXXXXXXXXXXXXX",
"  XXXXXXXXXXXXXX  XXXXXXXXXXXXXX  XXXXXXXXXXXXXX  XXXXXXXXXXXXXX",
"  XXXXXXXXXXXXXX  XXXXXXXXXXXXXX  XXXXXXXXXXXXXX  XXXXXXXXXXXXXX",
"  XXXXXXXXXXXXXX  XXXXXXXXXXXXXX  XXXXXXXXXXXXXX  XXXXXXXXXXXXXX",
"  XXXXXXXXXXXXXX  XXXXXXXXXXXXXX  XXXXXXXXXXXXXX  XXXXXXXXXXXXXX",
"  XXXXXXXXXXXXXX  XXXXXXXXXXXXXX  XXXXXXXXXXXXXX  XXXXXXXXXXXXXX",
"XXXXXXXXXXXXXXXX  XXXXXXXXXXXXXXXXXXXXXXXXXXXXXX  XXXXXXXXXXXXXX",
"XXXXXXXXXXXXXXXX  XXXXXXXXXXXXXXXXXXXXXXXXXXXXXX  XXXXXXXXXXXXXX",
"XXXXXXXXXXXXXXXX  XXXXXXXXXXXXXXXXXXXXXXXXXXXXXX  XXXXXXXXXXXXXX",
"XXXXXXXXXXXXXXXX  XXXXXXXXXXXXXXXXXXXXXXXXXXXXXX  XXXXXXXXXXXXXX",
"XXXXXXXXXXXXXXXX  XXXXXXXXXXXXXXXXXXXXXXXXXXXXXX  XXXXXXXXXXXXXX",
"XXXXXXXXXXXXXXXX  XXXXXXXXXXXXXXXXXXXXXXXXXXXXXX  XXXXXXXXXXXXXX",
"XXXXXXXXXXXXXXXX  XXXXXXXXXXXXXXXXXXXXXXXXXXXXXX  XXXXXXXXXXXXXX",
"XXXXXXXXXXXXXXXX  XXXXXXXXXXXXXXXXXXXXXXXXXXXXXX  XXXXXXXXXXXXXX",
"                                                                ",
"                                                                ",
"  XXXXXXXXXXXXXX  XXXXXXXXXXXXXX  XXXXXXXXXXXXXX  XXXXXXXXXXXXXX",
"  XXXXXXXXXXXXXX  XXXXXXXXXXXXXX  XXXXXXXXXXXXXX  XXXXXXXXXXXXXX",
"  XXXXXXXXXXXXXX  XXXXXXXXXXXXXX  XXXXXXXXXXXXXX  XXXXXXXXXXXXXX",
"  XXXXXXXXXXXXXX  XXXXXXXXXXXXXX  XXXXXXXXXXXXXX  XXXXXXXXXXXXXX",
"  XXXXXXXXXXXXXX  XXXXXXXXXXXXXX  XXXXXXXXXXXXXX  XXXXXXXXXXXXXX",
"  XXXXXXXXXXXXXX  XXXXXXXXXXXXXX  XXXXXXXXXXXXXX  XXXXXXXXXXXXXX",
"XXXXXXXXXXXXXXXX  XXXXXXXXXXXXXXXXXXXXXXXXXXXXXX  XXXXXXXXXXXXXX",
"XXXXXXXXXXXXXXXX  XXXXXXXXXXXXXXXXXXXXXXXXXXXXXX  XXXXXXXXXXXXXX",
"XXXXXXXXXXXXXXXX  XXXXXXXXXXXXXXXXXXXXXXXXXXXXXX  XXXXXXXXXXXXXX",
"XXXXXXXXXXXXXXXX  XXXXXXXXXXXXXXXXXXXXXXXXXXXXXX  XXXXXXXXXXXXXX",
"XXXXXXXXXXXXXXXX  XXXXXXXXXXXXXXXXXXXXXXXXXXXXXX  XXXXXXXXXXXXXX",
"XXXXXXXXXXXXXXXX  XXXXXXXXXXXXXXXXXXXXXXXXXXXXXX  XXXXXXXXXXXXXX",
"XXXXXXXXXXXXXXXX  XXXXXXXXXXXXXXXXXXXXXXXXXXXXXX  XXXXXXXXXXXXXX",
"XXXXXXXXXXXXXXXX  XXXXXXXXXXXXXXXXXXXXXXXXXXXXXX  XXXXXXXXXXXXXX",
"                                                                ",
"                                                                ",
"  XXXXXXXXXXXXXX  XXXXXXXXXXXXXX  XXXXXXXXXXXXXX  XXXXXXXXXXXXXX",
"  XXXXXXXXXXXXXX  XXXXXXXXXXXXXX  XXXXXXXXXXXXXX  XXXXXXXXXXXXXX",
"  XXXXXXXXXXXXXX  XXXXXXXXXXXXXX  XXXXXXXXXXXXXX  XXXXXXXXXXXXXX",
"  XXXXXXXXXXXXXX  XXXXXXXXXXXXXX  XXXXXXXXXXXXXX  XXXXXXXXXXXXXX",
"  XXXXXXXXXXXXXX  XXXXXXXXXXXXXX  XXXXXXXXXXXXXX  XXXXXXXXXXXXXX",
"  XXXXXXXXXXXXXX  XXXXXXXXXXXXXX  XXXXXXXXXXXXXX  XXXXXXXXXXXXXX",
"XXXXXXXXXXXXXXXX  XXXXXXXXXXXXXXXXXXXXXXXXXXXXXX  XXXXXXXXXXXXXX",
"XXXXXXXXXXXXXXXX  XXXXXXXXXXXXXXXXXXXXXXXXXXXXXX  XXXXXXXXXXXXXX",
"XXXXXXXXXXXXXXXX  XXXXXXXXXXXXXXXXXXXXXXXXXXXXXX  XXXXXXXXXXXXXX",
"XXXXXXXXXXXXXXXX  XXXXXXXXXXXXXXXXXXXXXXXXXXXXXX  XXXXXXXXXXXXXX",
"XXXXXXXXXXXXXXXX  XXXXXXXXXXXXXXXXXXXXXXXXXXXXXX  XXXXXXXXXXXXXX",
"XXXXXXXXXXXXXXXX  XXXXXXXXXXXXXXXXXXXXXXXXXXXXXX  XXXXXXXXXXXXXX",
"XXXXXXXXXXXXXXXX  XXXXXXXXXXXXXXXXXXXXXXXXXXXXXX  XXXXXXXXXXXXXX",
"XXXXXXXXXXXXXXXX  XXXXXXXXXXXXXXXXXXXXXXXXXXXXXX  XXXXXXXXXXXXXX"
};
