/* XPM */
static char *xpm_[] = {
/* columns rows colors chars-per-pixel */
"64 64 3 1 ",
"  c #6ED6DB",
". c #1C1B1B",
"X c #6C6C6C",
/* pixels */
"                                                                ",
" .............................................................. ",
" ...................  ...... ............   ... ........... ... ",
" ......   .....   .. .......  ..   ...... . ..  ......   .  ... ",
" .   .. ...   . .... ...   ..... . ..  .. . .....   .... ...... ",
" . . .. ... ... .... ... . .   . . ..  .. . .   . . .... ...... ",
" ...... ... ..  .... .   . . .   . .. ..... . .   . .... ...... ",
" ..     ..  ......   .....   .....    ..XX.   .....   ..     .. ",
" .. ..........XXX.............XX........X................... .. ",
" .. ..........X.X..............X........XX.................. .. ",
" ...... .XX..........XXX..........XXXX..XXX..........XX. ...... ",
" ...... .XX...XXXX...X.X....XXX......X..X.X..XXXX....XX.    ... ",
" ...    ....XXX..XXXXX.XXXXXX.XXXX...XXXX.XXXX..XXXX.XX.... ... ",
" ... .......X......................................X....... ... ",
" ...   .....X......................................X.....   ... ",
" ..... ....XX......................................XX.... ..... ",
" ....  ....X........................................X....  .  . ",
" .  . .....X........................................X..... . .. ",
" .  .   ...XX......................................XX...   .... ",
" ...... ....X......................................X.... ...... ",
" .      ....X......................................X....      . ",
" . .......XXX......................................XXX....... . ",
" .    .X.XX..........................................XX.X.    . ",
" ......XXXXXX......................................XXXXXX...... ",
" ...........X......................................X........... ",
" ...  ......X......................................X......  ... ",
" ...    ..XXX......................................XXX..    ... ",
" ...... ..X..........................................X.. ...... ",
" ...... ..X..........................................X.. ...... ",
" ..     ..X..........................................X..     .. ",
" .. ........X......................................X........ .. ",
" ..    .XX..X......................................X..XX.    .. ",
" ..... .X...X......................................X...X. ..... ",
" .  .  .XX.XX......................................XX.XX.  .... ",
" .  . .....X........................................X..... . .. ",
" ....   ...XX......................................XX...   .  . ",
" ...... ....X......................................X.... ...... ",
" ...    ....X......................................X....    ... ",
" ... .......X......................................X....... ... ",
" ...   .....X......................................X.....   ... ",
" ..... ...XXX......................................XXX... ..... ",
" ..... ...X..........................................X... ..... ",
" . .......XXX......................................XXX....... . ",
" .      ....X......................................X....      . ",
" ...... ....X......................................X.... ...... ",
" ...... ....X......................................X.... ...... ",
" .. .......XX......................................XX....... .. ",
" .. ....XX.X........................................X.XX.... .. ",
" ..    .X..X........................................X..X.    .. ",
" ..... .XX.XX......................................XX.XX. ..... ",
" ... .......X......................................X....... ... ",
" ...    ....XXX..XXXXX.XXXXXX.XXXX...XXXX.XXXX..XXXX....... ... ",
" ...... .XX...XXXX...X.X....XXX......X..X.X..XXXX.......    ... ",
" ...... .XX..........XXX..........XXXX..XXX........XXX.. ...... ",
" .. ..........X.X..............X.......XXX.........XXX...... .. ",
" .. ..........XXX.............XX.......X.X.................. .. ",
" ..     ..  ......   .....   .....    .XXX.   .....   ..     .. ",
" ...... ... ..  .... .   . . .   . .. ..... . .   . .... ...... ",
" ...... ... ... .... ... . .   . . ..  .. . .   . . .... ... .. ",
" ...... ...   . .... ...   ..... . ..  .. . .....   .... ...  . ",
" ...  .   .....   .. .......  ..   ...... . ..  ......   ...... ",
" ... ...............  ...... ............   ... ............... ",
" .............................................................. ",
"                                                                "
};
