/* XPM */
static char *xpm_[] = {
/* columns rows colors chars-per-pixel */
"64 64 3 1 ",
"  c None",
". c #FF7918",
"X c #BE6E2B",
/* pixels */
"                          .......                               ",
"               .......    ..    .        ........               ",
"               .......    ..    .        ........               ",
"         .......    ........    ..........      ....            ",
"         .                                         .            ",
"         .                                         .            ",
"         .                     XXXX                .            ",
"         .  ....               X XX                .            ",
"         .  ....               X XX                .            ",
"       ...  .  .               X XX                ...          ",
"       ..   .  .   ......                 .....     ..          ",
"       ..   .  .   ......                 .....     ..          ",
"       ..          .   ..                 .. ..     ..          ",
"       ..          .   ..                 .. ..     ..          ",
"       ..          .   ..                 .. ..     ..          ",
"       ...         .   ..                          ...          ",
"         .                  ....                   .            ",
"         .                  .  .      ......       .            ",
"         .                  .  .      ......       .            ",
"         .                  .  .      .   ..       .            ",
"         .                            .   ..       .            ",
"         .                            .   ..       .            ",
"         .   XXXX                     .   ..       ...          ",
"       ...   XX X                                   ..          ",
"       ...   XX X                                   ..          ",
"       ..    XX X        ......                  ........       ",
"       ..                .   ..           .........    ........ ",
"       ..                .   ..           .........    ........ ",
"       ..                .   ..           ..                 .. ",
"       ..    ......      .   ..          ...   ....          .. ",
"       ..    ......      .   ..          ...   ....          .. ",
" ..............  .....                   .     . ..          ...",
" ..                 ..           XXXXX   .     . ..            .",
" ..          ....   ..           XX XX   ...           .....   .",
" ..          ....   ..           XX XX   ...           .....   .",
" ..          .. .   ..           XX XX    ..           .. ..   .",
" ..          .. .   ..                    ..     XXXXX .. .. ...",
" ..          .. .   ..                    ..     XXXXX .. .. ...",
"...   XXXX          .....   ...........   ..     XX XX       .. ",
".     X  X          .. ......      X  ......                 .. ",
".     X  X          .. ......      X  ......                 .. ",
".                   ..   X         X      ..                 .. ",
".         .....     ..   X         X      ......   ............ ",
".         .....     ..   X         X      ......   ............ ",
"...       .. ..     ..   X         X           .....  XXX       ",
" ..       .. ..     ..   X         X            X      XX       ",
" ..       .. ..     ..   X         X            X      XX       ",
" ..                 ..   X         X  XXXXXXX   X     XXX       ",
" ........   ..........   X         XXXX     XXXXX     X         ",
"       ......  X         X                            X         ",
"       ......  X         X                            X         ",
"         X     X XXXXXX  X                            X         ",
"         X     XXXX   XXXX                            X         ",
"         X     XXXX   XXXX                            X         ",
"         X                         XXXXXXXXX    XXXXXXX         ",
"         X                         X      XXXXXXX               ",
"         X                         X      XXXXXXX               ",
"         X                         XXX                          ",
"         XXXXXX    XXXXXXX          XX                          ",
"         XXXXXX    XXXXXXX          XX                          ",
"             XXXXXXX     X          XX                          ",
"                         X          XX                          ",
"                         X          XX                          ",
"                         X         XXX                          "
};
