/* XPM */
static char *xpm_[] = {
/* columns rows colors chars-per-pixel */
"64 64 4 1 ",
"  c #566C86",
". c #1A1C2C",
"X c #94B0C2",
"o c #333C57",
/* pixels */
"                ................................................",
"                ................................................",
"                ................................................",
"                ................................................",
"................XXXXXXXXXXXXooooXXXXXXXXXXXXXXXXXXXXXXXX........",
"................XXXXXXXXXXXXooooXXXXXXXXXXXXXXXXXXXXXXXX........",
"................XXXXXXXXXXXXooooXXXXXXXXXXXXXXXXXXXXXXXX........",
"................XXXXXXXXXXXXooooXXXXXXXXXXXXXXXXXXXXXXXX........",
"XXXXXXXXXXXXXXXXXXXXXXXXXXXXooooXXXXXXXXXXXXXXXXXXXXXXXXXXXXXXXX",
"XXXXXXXXXXXXXXXXXXXXXXXXXXXXooooXXXXXXXXXXXXXXXXXXXXXXXXXXXXXXXX",
"XXXXXXXXXXXXXXXXXXXXXXXXXXXXooooXXXXXXXXXXXXXXXXXXXXXXXXXXXXXXXX",
"XXXXXXXXXXXXXXXXXXXXXXXXXXXXooooXXXXXXXXXXXXXXXXXXXXXXXXXXXXXXXX",
"XXXXXXXXXXXXXXXX            oooo                    XXXXXXXXXXXX",
"XXXXXXXXXXXXXXXX            oooo                    XXXXXXXXXXXX",
"XXXXXXXXXXXXXXXX            oooo                    XXXXXXXXXXXX",
"XXXXXXXXXXXXXXXX            oooo                    XXXXXXXXXXXX",
"                            oooo                                ",
"                            oooo                                ",
"                            oooo                                ",
"                            oooo                                ",
"                            oooo                                ",
"                            oooo                                ",
"                            oooo                                ",
"                            oooo                                ",
"                            ........                            ",
"                            ........                            ",
"                            ........                            ",
"                            ........                            ",
"                        ............                            ",
"                        ............                            ",
"                        ............                            ",
"                        ............                            ",
"        ....................................                    ",
"        ....................................                    ",
"        ....................................                    ",
"        ....................................                    ",
"........XXXXXXXXXXXXXXXXXXXXXXXXXXXXXXXX........................",
"........XXXXXXXXXXXXXXXXXXXXXXXXXXXXXXXX........................",
"........XXXXXXXXXXXXXXXXXXXXXXXXXXXXXXXX........................",
"........XXXXXXXXXXXXXXXXXXXXXXXXXXXXXXXX........................",
"XXXXXXXXXXXXXXXXXXXXXXXXXXXXXXXXXXXXXXXXXXXX....XXXXXXXXXXXXXXXX",
"XXXXXXXXXXXXXXXXXXXXXXXXXXXXXXXXXXXXXXXXXXXX....XXXXXXXXXXXXXXXX",
"XXXXXXXXXXXXXXXXXXXXXXXXXXXXXXXXXXXXXXXXXXXX....XXXXXXXXXXXXXXXX",
"XXXXXXXXXXXXXXXXXXXXXXXXXXXXXXXXXXXXXXXXXXXX....XXXXXXXXXXXXXXXX",
"XXXXXXXX                                XXXX....    XXXXXXXXXXXX",
"XXXXXXXX                                XXXX....    XXXXXXXXXXXX",
"XXXXXXXX                                XXXX....    XXXXXXXXXXXX",
"XXXXXXXX                                XXXX....    XXXXXXXXXXXX",
"                                            oooo                ",
"                                            oooo                ",
"                                            oooo                ",
"                                            oooo                ",
"                                            oooo                ",
"                                            oooo                ",
"                                            oooo                ",
"                                            oooo                ",
"                                            oooo                ",
"                                            oooo                ",
"                                            oooo                ",
"                                            oooo                ",
"                                            ....                ",
"                                            ....                ",
"                                            ....                ",
"                                            ....                "
};
